X:290
T:Wallom Green. (p)1687.PLFD.290
M:3/2
L:1/8
Q:1/2=100
S:Playford, Dancing Master,7th Ed,1st Supp,1687.
O:England
H:1687.
Z:Chris Partington
K:F
F4E4(DE)(FD)|E2G4A2^C4|F4E4DEFD|E2A,4^C2D4:|
|:A4G4(AB)(cA)|B2G4B2F4|(FE)(FG) (AB)(cA) (Bc)d2|e2A4^c2d4:|
|:f4e4(de)(fd)|e2g4a2c4|f4e4(dc)(fd)|e2A4^c2d4:|
|:F4(FG)A2(AB)(cA)|E2G4A2B4|A2(GF)G2(FE)F2(ED)|E2D4^C2D4:|
